brandFactory_export/2.Regular/Bateria vacia_Baja_2Regular.svg

<?xml version="1.0" encoding="UTF-8"?>
<svg width="24px" height="24px" viewBox="0 0 24 24" version="1.1" xmlns="http://www.w3.org/2000/svg" xmlns:xlink="http://www.w3.org/1999/xlink">
    <title>2.Regular/Bateria vacia_Baja_2Regular</title>
    <g id="Symbols" stroke="none" stroke-width="1" fill="none" fill-rule="evenodd">
        <g id="2.Regular/Bateria-vacia_Baja_2Regular" fill="#5CB615" fill-rule="nonzero">
            <path d="M18.2605042,19.6067227 L18.2605042,6.57478992 C18.2605042,5.68403361 18.0621849,5.05546218 17.6521008,4.65210084 C17.2420168,4.24537815 16.6033613,4.05042017 15.6957983,4.05042017 L9.08403361,4.05042017 C8.18991597,4.05042017 7.5512605,4.25210084 7.13445378,4.66890756 C6.7210084,5.0789916 6.52268908,5.70420168 6.52268908,6.57815126 L6.52268908,19.610084 C6.52268908,20.507563 6.7210084,21.1428571 7.13445378,21.5428571 C7.54117647,21.9428571 8.18319328,22.1344538 9.08739496,22.1344538 L15.6991597,22.1344538 C16.6033613,22.1344538 17.2420168,21.9394958 17.6521008,21.5428571 C18.0621849,21.1394958 18.2605042,20.5042017 18.2605042,19.6067227 Z M10.6705882,1.6 C10.5831933,1.68403361 10.5663866,1.8789916 10.5663866,2.02352941 L10.5663866,2.55798319 L14.2235294,2.55798319 L14.2235294,2.02352941 C14.2235294,1.90252101 14.210084,1.68403361 14.1226891,1.59663866 C14.0319328,1.50588235 13.810084,1.49579832 13.6857143,1.49579832 L11.107563,1.49579832 C10.9529412,1.49243697 10.7579832,1.5092437 10.6705882,1.6 Z M18.7243697,3.59663866 C19.4302521,4.29579832 19.7731092,5.26722689 19.7731092,6.57478992 L19.7731092,19.6067227 C19.7731092,20.9243697 19.4268908,21.902521 18.7142857,22.5983193 C18.0084034,23.287395 17.0201681,23.6235294 15.6957983,23.6235294 L9.08403361,23.6235294 C7.75966387,23.6235294 6.77142857,23.287395 6.06554622,22.5983193 C5.35294118,21.902521 5.00672269,20.9210084 5.00672269,19.6067227 L5.00672269,6.57478992 C5.00672269,5.2907563 5.34957983,4.32268908 6.05546218,3.61680672 C6.76470588,2.91092437 7.74621849,2.56470588 9.04705882,2.55798319 L9.04705882,2.02352941 C9.04705882,1.40504202 9.23193277,0.907563025 9.59159664,0.54789916 C9.95798319,0.18487395 10.4655462,0 11.097479,0 L13.6756303,0 C14.3176471,0 14.8252101,0.181512605 15.1848739,0.541176471 C15.5445378,0.897478992 15.7260504,1.39495798 15.7260504,2.02016807 L15.7260504,2.55462185 C17.0436975,2.56470588 18.0252101,2.90420168 18.7243697,3.59663866 Z M16.6067227,17.7579832 C17.0235294,17.7579832 17.3630252,18.0907563 17.3630252,18.5042017 L17.3630252,18.8571429 C17.3630252,20.3193277 16.2336134,21.5092437 14.8487395,21.5092437 L9.93781513,21.5092437 C8.55294118,21.5092437 7.42352941,20.3193277 7.42352941,18.8571429 L7.42352941,18.5042017 C7.42352941,18.0941176 7.76302521,17.7579832 8.17983193,17.7579832 L16.6067227,17.7579832 Z" id="Bateria-vacia_Baja_2Regular"></path>
        </g>
    </g>
</svg>

<svg width="24" height="24" viewBox="0 0 24 24" xmlns="http://www.w3.org/2000/svg"><path d="M18.26 19.607V6.575c0-.891-.198-1.52-.608-1.923-.41-.407-1.049-.602-1.956-.602H9.084c-.894 0-1.533.202-1.95.619-.413.41-.611 1.035-.611 1.91V19.61c0 .898.198 1.533.611 1.933.407.4 1.05.591 1.953.591H15.7c.904 0 1.543-.195 1.953-.591.41-.404.609-1.039.609-1.936zM10.67 1.6c-.087.084-.104.279-.104.424v.534h3.658v-.534c0-.121-.014-.34-.101-.427-.091-.091-.313-.101-.437-.101h-2.578c-.155-.004-.35.013-.437.104zm8.054 1.997c.706.699 1.05 1.67 1.05 2.978v13.032c0 1.317-.347 2.296-1.06 2.991-.706.69-1.694 1.026-3.018 1.026H9.084c-1.324 0-2.313-.337-3.018-1.026-.713-.695-1.06-1.677-1.06-2.991V6.575c0-1.284.344-2.252 1.05-2.958.709-.706 1.69-1.052 2.991-1.059v-.534c0-.619.185-1.116.545-1.476C9.958.185 10.466 0 11.097 0h2.579c.642 0 1.15.182 1.509.541.36.356.541.854.541 1.48v.534c1.318.01 2.3.35 2.998 1.042zm-2.117 14.161c.417 0 .756.333.756.746v.353c0 1.462-1.13 2.652-2.514 2.652H9.938c-1.385 0-2.514-1.19-2.514-2.652v-.353c0-.41.339-.746.756-.746h8.427z" fill="#5CB615" fill-rule="nonzero"/></svg>
